X: 281
T:Mr Gordon of Hallhead's Strathspey
B:William Marshall's Scottish Airs, Melodies, Strathspeys, Reels &c (1822)
C:William Marshall
L:1/8
M:C
O:Scotland
R:Strathspey
Z:Clark Bernst + Richard Robinson
%%Page:40 - 1
F:http://richardrobinson.tunebook.org.uk/tune/4124
%%TBL:{"version":1,"type":"tune","id":"4124"}
K:G
%%staves {1 2}
V:1
(G>D)(B,>D) G/F/E/D/ .B,.D | G<G,B<D F<A-A>.B |\
G>DB,>D (G/F/)E/F/ Gg | !trill!d>B c/B/A/G/ D<G- G2 |
(G>D)(B,>D) (G/F/)E/D/ (.B,.D) | G<G,B<D F<A-A>.B |\
(G>D)(B,>D) (G/F/)E/F/ (Gg) | !trill!d>B c/B/A/G/ D<G- G2 |]
(!trill!g/f/g/a/) g2 (!trill!g/f/g/a/) g2 | (e/f/)g/a/ (g/f/)e/d/ e<a-a>!wedge!f |\
!trill!g>b g<d egdB | ceAd B<G-~G.d |
(!trill!g/f/g/a/) g z (!trill!g/f/g/a/) g z | (g/a/)b/a/ (g/f/)e/d/ e<a- a g/f/ |\
g<be<g d<g~B>G | !trill!c>A (c/B/)(A/G/) D<G- G2 |]
V:2 middle=d clef=bass
L:1/4
GGGG | GGdd | GGGG | BcdG | GGGG | GGdd | GGGG | BcdG |] \
gbgb | c'a c'/^c'/d' | gbc'g | cdGG | Gg Gg | dBcd | gc'bg | c'dgg |]

